public/svg/icon/grs.svg

<svg xmlns="http://www.w3.org/2000/svg" xmlns:xlink="http://www.w3.org/1999/xlink" width="32" height="32" viewBox="0 0 32 32"><defs><linearGradient id="grs-c" x1="50%" x2="50%" y1="0%" y2="100%"><stop offset="0%" stop-color="#FFF" stop-opacity=".5"/><stop offset="100%" stop-opacity=".5"/></linearGradient><circle id="grs-b" cx="16" cy="15" r="15"/><filter id="grs-a" width="111.7%" height="111.7%" x="-5.8%" y="-4.2%" filterUnits="objectBoundingBox"><feOffset dy=".5" in="SourceAlpha" result="shadowOffsetOuter1"/><feGaussianBlur in="shadowOffsetOuter1" result="shadowBlurOuter1" stdDeviation=".5"/><feComposite in="shadowBlurOuter1" in2="SourceAlpha" operator="out" result="shadowBlurOuter1"/><feColorMatrix in="shadowBlurOuter1" values="0 0 0 0 0 0 0 0 0 0 0 0 0 0 0 0 0 0 0.199473505 0"/></filter><path id="grs-e" d="M23.1480137,28.1906005 C23.1749006,28.1713087 23.2014059,28.1518728 23.2275224,28.1322932 C23.0101389,27.7343304 22.6574173,27.524811 22.2603266,27.4303414 C21.6946832,27.2954555 21.118877,27.1707357 20.5410878,27.1295757 C19.2581033,27.0378335 17.9706572,27.0157658 16.6866813,26.9379089 C15.2554695,26.8508777 13.8262406,26.7296293 12.3952767,26.6359034 C12.2705972,26.627721 12.0916337,26.6745839 12.0199988,26.7628548 C11.6449687,27.2228056 11.282828,27.694906 10.9447309,28.1826275 C10.7798962,28.4209092 10.6775251,28.7025826 10.5491275,28.9599567 C10.5814013,28.9792067 10.6142136,28.9981795 10.647552,29.0168758 C10.0807351,28.8003042 9.53042227,28.5503397 8.9990195,28.2693885 C9.09591787,28.2880361 9.22408026,28.2734379 9.27162101,28.2256967 C9.85858144,27.6378027 10.4264557,27.0305685 10.9978003,26.4310208 C10.5704693,26.089343 10.1535489,25.7873376 9.77405716,25.4441722 C9.41935261,25.1230744 9.27186888,24.6983328 9.30210924,24.2120991 C9.34895701,23.4645241 9.67639567,22.8277836 10.1577627,22.2939431 C10.7268764,21.6631535 11.3653941,21.0945997 11.9744152,20.4997631 C12.0485288,20.4276091 12.1271042,20.3604141 12.197004,20.2966905 C12.1734562,20.2555305 12.1707296,20.2436288 12.1635414,20.2391656 C12.1043,20.2039565 12.0445629,20.1697391 11.9848258,20.1352738 C10.0283736,19.0068446 9.05250234,17.2920092 9.0264758,15.0537473 C9.0044152,13.1385667 9.81991344,11.5866357 11.2630231,10.3612574 C12.6687041,9.16786484 14.325975,8.74857816 16.1431232,8.78998612 C17.4883235,8.82048421 18.7457771,9.11827446 19.9169714,9.7862569 C19.9824095,9.82344969 20.14774,9.77981016 20.2074771,9.71707832 C20.7619664,9.13687085 21.3238918,8.56187037 21.8424396,7.95042095 C22.4871541,7.19044834 23.0332157,6.36526438 23.2592748,5.36998541 C23.4355117,4.59389593 23.3604065,3.86466936 22.7977375,3.25892284 C21.9718287,2.36951933 20.5505317,2.4887842 19.8260024,3.50216366 C19.6834762,3.701517 19.6004391,3.94302216 19.4616309,4.14609478 C19.4100736,4.22196806 19.2782058,4.24329192 19.1827751,4.28965893 C19.1599709,4.20634709 19.1074221,4.11882007 19.1195678,4.04096316 C19.1517911,3.82673271 19.19269,3.61002274 19.2638292,3.40645422 C19.6202688,2.38489235 20.2813429,1.68789953 21.3908171,1.53193777 C21.7524621,1.48085968 22.1272443,1.52375536 22.5040094,1.52375536 C22.4859148,1.49846427 22.4779829,1.47738835 22.4633584,1.46970184 C22.3937065,1.4322611 22.3225673,1.39680398 22.2504366,1.36382638 C21.5307773,1.03595817 20.8018978,0.766985016 20.0643385,0.557145535 C21.4858714,0.956360504 22.8219569,1.55979823 24.0389405,2.33380413 C24.0461333,2.41477547 24.0422587,2.43635597 24.05125,2.44742582 C24.878894,3.46849179 24.772557,4.55179369 24.2515304,5.65319608 C23.8098229,6.58648708 23.1641168,7.37670982 22.4678449,8.12800411 C21.8303186,8.81656657 21.1890743,9.5016577 20.5470863,10.1907161 C20.572865,10.2073288 20.5879852,10.2261732 20.6033532,10.2261732 C21.5846777,10.2274129 22.56625,10.2408023 23.5470788,10.2209662 C24.058934,10.2108002 24.5135309,10.0412011 24.8290717,9.58868882 C24.8898003,9.5016577 25.0526521,9.48578878 25.1686561,9.4371902 C25.1907167,9.46768829 25.2127773,9.49793842 25.23459,9.52818856 C24.961931,10.3112207 24.6939816,11.0959885 24.4076897,11.8738136 C24.3833982,11.9397688 24.2378975,11.9928306 24.1464328,11.9965498 C23.799908,12.010931 23.4526396,12.0025007 23.1058669,12.0025007 C22.7043146,12.0027486 22.3027623,12.0025007 21.860559,12.0025007 C21.9245099,12.129948 21.9626822,12.207309 22.0018459,12.284422 C22.6760572,13.6067495 22.8560122,15.0071819 22.5146927,16.4376165 C22.0115129,18.5474393 20.6313627,19.9096871 18.623849,20.6190776 C16.9856642,21.1977973 15.3036062,21.1767214 13.6203087,20.7750393 C13.4718335,20.7398301 13.240817,20.7090841 13.1612502,20.7889246 C12.7996052,21.1506865 12.4168911,21.5156717 12.1563779,21.9485957 C11.6187439,22.8414705 11.9305666,23.4623421 12.9550208,23.6775644 C12.9646878,23.6797959 12.9746027,23.6805398 12.9845176,23.6812837 C13.9893898,23.7586447 14.9930228,23.8543541 15.9991344,23.9096474 C17.4219186,23.9877522 18.8471815,24.0189942 20.269222,24.1042896 C21.1308244,24.1558636 21.9812726,24.3078581 22.7578549,24.7187145 C23.7570262,25.2466041 24.464948,26.025421 24.7750357,27.1620326 C24.8483747,27.1107562 24.9215231,27.0584965 24.9944533,27.0052629 C24.4105209,27.4434509 23.7935742,27.8400303 23.1480137,28.1906005 Z M18.6015688,29.7752038 C17.756589,29.9229599 16.8872913,30 16,30 C15.9482758,30 15.8966128,29.9997382 15.8450121,29.9992158 C16.7624415,29.9908088 17.6999737,29.9148805 18.6015688,29.7752038 Z M30.9999263,15.0475226 C30.9999754,15.0316875 31,15.0158466 31,15 C31,13.7064608 30.8362642,12.4511642 30.5283876,11.2537051 C30.7022028,11.9539814 30.8300326,12.6814966 30.9108543,13.4369025 C30.969359,13.9838267 30.9982895,14.5209591 30.9999263,15.0475226 Z M27.5133116,5.38466751 C26.6450664,4.34615484 25.6389341,3.42689117 24.5230618,2.65502355 C25.6641873,3.48009147 26.6631524,4.38856134 27.5133116,5.38466751 Z M8.78568199,28.1543771 C8.07808548,27.6962534 7.34891523,27.2618033 6.6802843,26.7541754 C7.33931605,27.277414 8.04336594,27.7463985 8.78568199,28.1543771 Z M1.00002836,15.029484 C1.00088846,14.5795932 1.02130937,14.1273787 1.06086749,13.6729031 C1.09115456,13.3251724 1.13226922,12.981555 1.1842562,12.6421164 C1.06297678,13.4102525 1,14.1977717 1,15 C1,15.0098302 1.00000946,15.0196582 1.00002836,15.029484 Z M3.73418642,6.36361106 C3.85505103,6.19494848 3.97996799,6.02796197 4.10894707,5.86266586 C4.61191692,5.21812273 5.14623425,4.62508704 5.71176721,4.08425487 C4.97918427,4.77497787 4.31612194,5.538632 3.73418642,6.36361106 Z M11.4372998,0.706548749 C12.2227189,0.463173021 13.0423093,0.279899495 13.8959174,0.157540328 C14.6159973,0.0542329894 15.3299352,0.00179712306 16.037307,4.54072934e-05 C16.0248749,1.5141573e-05 16.0124392,0 16,0 C14.4091032,0 12.8760521,0.247667242 11.4372998,0.706548749 Z M19.343396,15.6153088 C19.3243099,15.6103498 19.3052238,15.6058866 19.2861376,15.6009276 C19.2541622,15.1471756 19.2358197,14.6919359 19.1877325,14.2399195 C19.076686,13.1930666 18.7794877,12.2057221 18.2031857,11.314087 C17.3507546,9.99423897 15.9254917,9.46213417 14.557983,9.99051969 C13.4358673,10.4239396 12.8407271,11.3143349 12.5720341,12.4497067 C12.3179655,13.5240824 12.3375474,14.6128392 12.4679279,15.696885 C12.5921117,16.728117 12.8863355,17.7097586 13.4804842,18.5825493 C14.24269,19.7020522 15.3068037,20.1917572 16.6304391,19.97108 C17.8854141,19.7620566 18.6756294,18.9500141 18.9976149,17.7414964 C19.1817836,17.0511983 19.2325973,16.3251951 19.343396,15.6153088 Z"/><filter id="grs-d" width="111.7%" height="111.7%" x="-5.8%" y="-4.2%" filterUnits="objectBoundingBox"><feOffset dy=".5" in="SourceAlpha" result="shadowOffsetOuter1"/><feGaussianBlur in="shadowOffsetOuter1" result="shadowBlurOuter1" stdDeviation=".5"/><feColorMatrix in="shadowBlurOuter1" values="0 0 0 0 0 0 0 0 0 0 0 0 0 0 0 0 0 0 0.204257246 0"/></filter></defs><g fill="none" fill-rule="evenodd"><use fill="#000" filter="url(#grs-a)" xlink:href="#grs-b"/><use fill="#377E96" xlink:href="#grs-b"/><use fill="url(#grs-c)" style="mix-blend-mode:soft-light" xlink:href="#grs-b"/><circle cx="16" cy="15" r="14.5" stroke="#000" stroke-opacity=".097"/><g><use fill="#000" filter="url(#grs-d)" xlink:href="#grs-e"/><use fill="#FFF" xlink:href="#grs-e"/></g></g></svg>

<svg xmlns="http://www.w3.org/2000/svg" xmlns:xlink="http://www.w3.org/1999/xlink" width="32" height="32" viewBox="0 0 32 32"><defs><filter id="a" width="111.7%" height="111.7%" x="-5.8%" y="-4.2%" filterUnits="objectBoundingBox"><feOffset dy=".5" in="SourceAlpha" result="shadowOffsetOuter1"/><feGaussianBlur in="shadowOffsetOuter1" result="shadowBlurOuter1" stdDeviation=".5"/><feComposite in="shadowBlurOuter1" in2="SourceAlpha" operator="out" result="shadowBlurOuter1"/><feColorMatrix in="shadowBlurOuter1" values="0 0 0 0 0 0 0 0 0 0 0 0 0 0 0 0 0 0 0.199473505 0"/></filter><filter id="d" width="111.7%" height="111.7%" x="-5.8%" y="-4.2%" filterUnits="objectBoundingBox"><feOffset dy=".5" in="SourceAlpha" result="shadowOffsetOuter1"/><feGaussianBlur in="shadowOffsetOuter1" result="shadowBlurOuter1" stdDeviation=".5"/><feColorMatrix in="shadowBlurOuter1" values="0 0 0 0 0 0 0 0 0 0 0 0 0 0 0 0 0 0 0.204257246 0"/></filter><linearGradient id="c" x1="50%" x2="50%" y1="0%" y2="100%"><stop offset="0%" stop-color="#FFF" stop-opacity=".5"/><stop offset="100%" stop-opacity=".5"/></linearGradient><circle id="b" cx="16" cy="15" r="15"/><path id="e" d="M23.148 28.19l.08-.058c-.218-.398-.57-.607-.968-.702-.565-.135-1.141-.26-1.719-.3-1.283-.092-2.57-.114-3.854-.192-1.432-.087-2.86-.208-4.292-.302-.124-.008-.303.039-.375.127-.375.46-.737.932-1.075 1.42-.165.238-.267.52-.396.777.032.02.065.038.099.057a14.922 14.922 0 01-1.649-.748c.097.019.225.004.273-.043.587-.588 1.154-1.195 1.726-1.795-.428-.342-.844-.644-1.224-.987-.355-.32-.502-.746-.472-1.232.047-.747.374-1.384.856-1.918.569-.63 1.207-1.2 1.816-1.794.075-.072.153-.14.223-.203-.024-.041-.026-.053-.033-.058l-.18-.104c-1.956-1.128-2.931-2.843-2.958-5.081-.022-1.915.794-3.467 2.237-4.693 1.406-1.193 3.063-1.612 4.88-1.571 1.345.03 2.603.328 3.774.996.065.037.23-.006.29-.069.555-.58 1.117-1.155 1.635-1.767.645-.76 1.191-1.585 1.417-2.58.177-.776.101-1.505-.461-2.111-.826-.89-2.247-.77-2.972.243-.143.2-.226.441-.364.644-.052.076-.184.097-.28.144-.022-.084-.075-.171-.062-.249.032-.214.073-.431.144-.635.356-1.021 1.017-1.718 2.127-1.874.361-.051.736-.008 1.113-.008-.018-.026-.026-.047-.04-.054a3.697 3.697 0 00-.214-.106 15.5 15.5 0 00-2.186-.807c1.422.4 2.758 1.003 3.975 1.777.007.08.003.102.012.113.828 1.021.722 2.105.2 3.206-.441.933-1.087 1.724-1.783 2.475-.638.689-1.279 1.374-1.92 2.063.025.016.04.035.055.035.982.001 1.963.015 2.944-.005.512-.01.967-.18 1.282-.632.06-.087.224-.103.34-.152l.066.091c-.273.783-.541 1.568-.827 2.346-.025.066-.17.119-.262.123-.346.014-.693.006-1.04.006H21.86l.14.281c.675 1.323.855 2.723.514 4.154-.503 2.11-1.884 3.472-3.891 4.181-1.638.579-3.32.558-5.004.156-.148-.035-.38-.066-.459.014-.361.362-.744.727-1.005 1.16-.537.892-.225 1.513.799 1.729l.03.003c1.004.078 2.008.173 3.014.229 1.423.078 2.848.109 4.27.194.862.052 1.712.204 2.489.615.999.528 1.707 1.306 2.017 2.443l.22-.157a15.07 15.07 0 01-1.847 1.186zm-4.546 1.585a15.094 15.094 0 01-2.757.224 19.322 19.322 0 002.757-.224zM31 15.048V15c0-1.294-.164-2.549-.472-3.746A16.212 16.212 0 0131 15.048zm-3.487-9.663a15.085 15.085 0 00-2.99-2.73 16.999 16.999 0 012.99 2.73zM8.786 28.155c-.708-.459-1.437-.893-2.106-1.4.66.522 1.363.991 2.106 1.4zM1 15.028a15.992 15.992 0 01.184-2.387A15.111 15.111 0 001 15.03zm2.734-8.665a16.504 16.504 0 011.978-2.28 15.082 15.082 0 00-1.978 2.28zM11.437.707A15.932 15.932 0 0116 0c-1.59 0-3.124.248-4.563.707zm7.906 14.908l-.057-.014c-.032-.454-.05-.91-.098-1.361-.111-1.047-.409-2.034-.985-2.926-.852-1.32-2.278-1.852-3.645-1.323-1.122.433-1.717 1.323-1.986 2.459-.254 1.074-.234 2.163-.104 3.247.124 1.031.418 2.013 1.012 2.886.763 1.12 1.827 1.609 3.15 1.388 1.255-.209 2.046-1.021 2.368-2.23.184-.69.235-1.416.345-2.126z"/></defs><g fill="none" fill-rule="evenodd"><use fill="#000" filter="url(#a)" xlink:href="#b"/><use fill="#377E96" xlink:href="#b"/><use fill="url(#c)" style="mix-blend-mode:soft-light" xlink:href="#b"/><circle cx="16" cy="15" r="14.5" stroke="#000" stroke-opacity=".097"/><use fill="#000" filter="url(#d)" xlink:href="#e"/><use fill="#FFF" xlink:href="#e"/></g></svg>
